!!!COM: Beethoven
!!!OTL: Neun Variationen uber einen Marsch von E. Chr. Dressler
!!!Variation: Variation 9 d
**function	**harm	**kern	**kern
*M4/4	*M4/4	*staff1	*staff2
*tb16	*	*	*
=-	=-	=-	=-
*	*	*clefG2	*clefF4
*	*	*k[b-e-a-]	*k[b-e-a-]
*	*	*M4/4	*M4/4
*	*	*c:	*c:
1@65T	1vii@65	16r	2d 2f
.	.	16bLL	.
.	.	16cc	.
.	.	16ddJJ	.
.	.	16eeLL	.
.	.	16ff	.
.	.	16gg	.
.	.	16aaJJ	.
.	.	16bbLL	2r
.	.	16aa	.
.	.	16gg	.
.	.	16ffJJ	.
.	.	16eeLL	.
.	.	16dd	.
.	.	16cc	.
.	.	16bJJ	.
=	=	=170	=170
1T	1I6	16r	2e 2g
.	.	16ccLL	.
.	.	16dd	.
.	.	16eeJJ	.
.	.	16ffLL	.
.	.	16gg	.
.	.	16aa	.
.	.	16bbJJ	.
.	.	8ccc'L	2r
.	.	8gg'	.
.	.	8ee'	.
.	.	8cc'J	.
=	=	=171	=171
1T	1V2	16r	2F 2G 2d
.	.	16bLL	.
.	.	16cc	.
.	.	16ddJJ	.
.	.	16eeLL	.
.	.	16ff	.
.	.	16gg	.
.	.	16aaJJ	.
.	.	16bbLL	2r
.	.	16aa	.
.	.	16gg	.
.	.	16ffJJ	.
.	.	16eeLL	.
.	.	16dd	.
.	.	16cc	.
.	.	16bJJ	.
=	=	=172	=172
1T	1I6	16r	2E 2G 2c
.	.	16ccLL	.
.	.	16dd	.
.	.	16eeJJ	.
.	.	16ffLL	.
.	.	16gg	.
.	.	16aa	.
.	.	16bbJJ	.
.	.	8ccc'L	2r
.	.	8gg'	.
.	.	8ee'	.
.	.	8cc'J	.
=	=	=173	=173
1PD	1IV	16aaLL	4F
.	.	16gg#	.
.	.	16aa	.
.	.	16bbJJ	.
.	.	16cccLL	4r
.	.	16aa	.
.	.	16ff	.
.	.	16eeJJ	.
.	.	16ffLL	4F 4A
.	.	16ee	.
.	.	16ff	.
.	.	16ggJJ	.
.	.	16aaLL	4r
.	.	16ff	.
.	.	16dd	.
.	.	16cc#JJ	.
=	=	=174	=174
2PD	2ii6	16ddLL	4F 4A
.	.	16cc#	.
.	.	16dd	.
.	.	16aaJJ	.
.	.	16ggLL	8DL
.	.	16ff	.
.	.	16ee	8FJ
.	.	16ddJJ	.
4D	4C64	(16eeLL	4G
.	.	16ff	.
.	.	16gg)	.
.	.	16cc'JJ	.
4D	4V7	(16ffLL	4GG
.	.	16ee	.
.	.	16ff)	.
.	.	16b'JJ	.
=	=	=175	=175
1T	1I	2cc	16CLL
.	.	.	16c
.	.	.	16B
.	.	.	16AJJ
.	.	.	16GLL
.	.	.	16F
.	.	.	16E
.	.	.	16DJJ
.	.	4.e 4.g 4.cc	16CLL
.	.	.	16c
.	.	.	16B
.	.	.	16AJJ
.	.	.	16GLL
.	.	.	16F
.	.	8e 8g 8cc	16E
.	.	.	16DJJ
=	=	=176	=176
1T	1I	2e 2g 2cc	2C
.	.	2r	2r
==	==	==	==
*-	*-	*-	*-
